X:1
T:Io mi trovo Giesu
T:Giovanni Animuccia
T:Source : Primo libro delle Laude spirituali a tre voci---Roma---A.Gardano---1583. Editor : André Vierendeels (25/11/17). Notes : Original clefs : C1, C2, C3 Editorial accidentals above the staff
T:PRIMA PARTE
T:Io mi trovo Giesu
T:©
T:©
T:©
T:©
C:Giovanni Animuccia
Z:©
%%score [ 1 2 3 ]
L:1/8
Q:1/4=120
M:4/4
K:F
V:1 treble nm="Soprano" snm="S"
V:2 treble nm="Alto" snm="A"
V:3 treble-8 nm="Tenor" snm="T"
V:1
 z2 c2 c2 c2 | c3 c c4- | c2 c2 A2 B2 | G4 F4 :: z4 d4 | d4 d2 c2- | c2 B2 A4 | %7
w: Io mi tro-|vo Gie- su|_ da te lon-|ta- no,|gran|tem- po'in- fer-|* mo sta-|
w: |||||||
"^-natural" G4 z2 F2 | F4 F2 F2- | F2 F2 G4 | F4 z2 c2 | c2 B2 c2 d2 | c4 A2 B2- | B2 A2 G4 | F8 :: %15
w: to in-|vol- to nel|_ pe- ca-|to, hor|cer- co di tor-|nar et es-|* ser sa-|no.|
w: ||||||||
"^1)" G8 | G3 G G2 B2 | A6 B2 | c2 d2 c4 | A2 d2 d2 d2 |"^5)" c2 B2 A4 | G8 | G8 | G3 G G2 B2 | %24
w: Fa-|ti- co- sa'è la|vi- a'il|cor- po'è gra-|v'e in giu sem-|pre mi ti-|ra|con-|tur- ban la ra-|
w: L'ar-|den- te fe- bre|mia m'al-|te- ra'l sen-|so, e parm'l dol-|ce'a- ma- ro,|con|te|dio'e con a- ci-|
 A6 B2 | c2 d2 c4 | A2 d2 d2 d2 | c2 B2 A4 | G4 c4 | c4 c2 A2- | A2 B2 G4 | G4 c4 | c4 c2 A2- | %33
w: gion, l'u-|san- ze pra-|ve, il ne- mi-|co m'ag- gi-|ra'hor la|su- per- bia,|_ hor l'i-|ra, tal|che sa- lir|
w: dia io|par- lo'e pen-|so, di te Si-|gnor mio ca-|ro, io|non tro- vo|_ ri- pa-|ro, sen-|za te ve-|
 A2 B2 G4 | G4 z2 F2 | F4 F2 F2- | F2 F2 G4 | A4 z2 c2 | c2 B2 c2 d2 | c4 A2 B2- | B2 A2 G4 | %41
w: _ non pos-|so, e|s'io non son|_ ris- cos-|so da|te Si- gnor io|m'af- fa- ti-|* co'in va-|
w: * ra vi-|ta, sa-|na la mia|_ fe- ri-|ta, dol-|ce Gie- su'o buon|Sa- ma- *|* ri- ta-|
"^Io mi... etc." F8 :| %42
w: no.|
w: no.|
V:2
 z2 A2 A2 A2 | A3 A A4- | A2 G2 F2 F2- | F2 E2 F4 :: z4 F4 | B4 B2 A2- |"^#" A2 G2 F4 | G4 z2 D2 | %8
w: Io mi tro-|vo Gie- su|_ da te lon-|* ta- no,|gran|tem- po'in- fer-|* mo sta-|to in|
w: ||||||||
 D4 C2 D2- | D2 F2 E4 | F4 z2 A2 | A2 G2 A2 B2 | A4 F2 G2- | G2 F2 E4 | F8 ::"^2)""^1)" E8 | %16
w: vol- to nel|_ pe- ca-|to, hor|cer- co di tor-|nar et es-|* ser sa-|no.|Fa-|
w: |||||||Io|
 E3 E E2 G2 | F6 G2 | A2 B2 G4 | F2 B2 B2 B2 | A2 G4 ^F2 | G8 | E8 | E3 E E2 G2 | F6 G2 | %25
w: ti- co- sa'è la|vi- a'il|cor- po'è gra-|v'e in giu sem-|pre mi ti-|ra|con-|tur- ban la ra-|gion, l'u-|
w: so- no'à la pi-|sci- na'un|tem- po dta-|to, e non vi|pos- so'en- tra-|re,|dim-|mi Gie- su và|to- gl'il|
 A2 B2 G4 | F2 B2 B2 B2 | A2 G4 ^F2 | G4 A4 | A4 G2 F2- | F2 G2 E4 | E4 A4 | A4 G2 F2- | F2 G2 E4 | %34
w: san- ze pra-|ve, il ne- mi-|co m'ag- gi-|ra'hor la|su- per- bia,|_ hor l'i-|ra, tal|che sa- lir|_ non pos-|
w: tuo gra- ba-|to, e fiam- mi|ca- mi- na-|re, ac-|cio ch'io pos-|* sa'en- tra-|re'a le|noz- ze, all|_ con- vi-|
 E4 z2 C2 | D4 C2 D2- | D2 F2 E4 | F4 z2 A2 | A2 G2 A2 B2 | A4 F2 G2- | G2 F4 E2 | %41
w: so, e|s'io non son|_ ris- cos-|so da|te Si- gnor io|m'af- fa- ti-|* co'in va-|
w: to, ma|di bian- co|_ ve- sti-|to, in-|tro- du- ci- mi|tu con la|_ tua ma-|
"^Io mi...etc.""^Io mi...etc." F8 :| %42
w: no.|
w: no.|
V:3
 z2 f2 f2 f2 | f3 f f4- | f2 c2 d2 B2 | c4 F4 :: z4 B4 | B4 B2 F2- | F2 G2 d4 | G4 z2 B2 | %8
w: Io mi tro-|vo Gie- su|_ da te lon-|ta- no,|gran|tem- po'in- fer-|* mo sta-|to in|
w: ||||||||
w: ||||||||
 B4 A2 B2- | B2 d2 c4 | F4 z2 f2 | f2 g2 f2 B2 | f4 f2 _e2- | e2 f2 c4 | F8 ::"^3)""^1)""^4)" c8 | %16
w: vol- to nel|_ pe- ca-|to, hor|cer- co di tor-|nar et es-|* ser sa-|no.|Fa-|
w: |||||||Io|
w: |||||||Io|
 c3 c c2 G2 | d6 g2 | f3 B c4 | d2 B2 B2 B2 | F2 G2 d4 | G8 | c8 | c3 c c2 G2 | d6 g2 | f2 B2 c4 | %26
w: ti- co- sa'è la|vi- a'il|cor- po'è gra-|v'e in giu sem-|pre mi ti-|ra|con-|tur- ban la ra-|gion, l'u-|san- ze pra-|
w: son quel cie- co|na- t'o|Si- gnor mi-|o, e son quel|sor- do'e mu-|to.|Ren-|di- m'il lu- me|tuo pie-|to- so Di-|
w: ti vor- rei Gie-|su den-|tr'al mio co-|re, con dol- cez-|za gu- sta-|te|ma|non pos- so da|me sen-|za'il tuo'a- mo-|
 d2 B2 B2 B2 | F2 G2 d4 | G4 F4 | f4 c2 d2- | d2 G2 c4 | c4 F4 | f4 c2 d2- | d2 B2 c4 | c4 z2 F2 | %35
w: ve, il ne- mi-|co m'ag- gi-|ra'hor la|su- per- bia|_ hor l'i-|ra, tal|che sa- lir|_ non pos-|so, e|
w: o, fà di tua|ma- no'il lu-|to di|ter- ra'e del|_ tuo spu-|to, e|pon- me- lo|_ su gl'oc-|chi, Gie-|
w: re, che mi fa|lie- to sta-|re, pe-|ro fam- mi-|* ti'a- ma-|re col|cuor, e con|_ la men-|te Gie-|
 B4 A2 B2- | B2 d2 c4 | F4 z2 f2 | f2 g2 f2 B2 | f4 f2 _e2- | e2 f2 c4 |"^Io mi...etc." F8 :| %42
w: s'io non son|_ ris- co-|sa da|te Si- gnor io|m'af- fa- ti-|* co'in va-|no.|
w: su se tu|_ me toc-|chi la-|ve- rom- mi'al tuo|fon- t'e sa-|* ro sa-|no.|
w: su fam- mi|_ fer- ven-|te pel|san- gue, che ver-|sa- sti'o Pe-|* li- ca-|no.|

